X: 46
T: Katie's fancy
C: anon.
O: Ireland
B: Francis O'Neill: "The Dance Music of Ireland" (1907) no. 46
R: Double jig
Z: Transcribed by Frank Nordberg - http://www.musicaviva.com
F: http://www.musicaviva.com/abc/tunes/ireland/oneill-1001/oneill-1001-004
6.abc
M: 6/8
L: 1/8
Q: 3/8=128
K: G
G/E/|DEF G2A|Bgf efg|dBG FGA|BGB AFD|DEF G2A|Bgf efg|dBG FGA|BGG G2:|
d|gfe agf|gfe dBG|gfe dcB|AGA BGE|DEF G2A|Bgf efg|dBG FGA|BGG G2:|
d|dgf gab|eag fed|bag fag|fge d2d|ece gfe|dec Bcd|cAF DFA|BGG G2:|
W:
W:
W: From Musica Viva - http://www.musicaviva.com
W: the Internet center for free sheet music downloads.


